X: 338
T: Lianbin mang
L: 1/16
M: 2/4
K: G
d2 d2 e2 B A [I:setbarnb 1]| 
G2 E GA4 | 
d2 d2 e2 B A | 
G2 E GA4 | 
d2 d2 e2 d B | 
A2 d2 A B A G | 
D2 G2 A G E G | 
D8 |]

@@@ Tune index: 9212
